assets/images/infrastructure.svg

<svg fill="#82bc00" viewBox="0 0 60 60" xmlns="http://www.w3.org/2000/svg"><g fill="#82bc00" fill-rule="evenodd" transform="translate(0 -1)"><path d="m42 1.9982c0-.55228475-.4477153-1-1-1h-22c-.5522847 0-1 .44771525-1 1v17h-17c-.55228475 0-1 .4477153-1 1v22c0 .5522847.44771525 1 1 1h17v17c0 .5522847.4477153 1 1 1h22c.5522847 0 1-.4477153 1-1v-17h17c.5522847 0 1-.4477153 1-1v-22c0-.5522847-.4477153-1-1-1h-17zm16 39h-17c-.5522847 0-1 .4477153-1 1v17h-20v-17c0-.5522847-.4477153-1-1-1h-17v-20h17c.5522847 0 1-.4477153 1-1v-17h20v17c0 .5522847.4477153 1 1 1h17z"/><path d="m29 5.9982v3c0 .55228475.4477153 1 1 1s1-.44771525 1-1v-3c0-.55228475-.4477153-1-1-1s-1 .44771525-1 1z"/><path d="m29 13.9982v3c0 .5522847.4477153 1 1 1s1-.4477153 1-1v-3c0-.5522847-.4477153-1-1-1s-1 .4477153-1 1z"/><path d="m29 21.9982v3c0 .5522847.4477153 1 1 1s1-.4477153 1-1v-3c0-.5522847-.4477153-1-1-1s-1 .4477153-1 1z"/><path d="m29 29.9982v3c0 .5522847.4477153 1 1 1s1-.4477153 1-1v-3c0-.5522847-.4477153-1-1-1s-1 .4477153-1 1z"/><path d="m29 37.9982v3c0 .5522847.4477153 1 1 1s1-.4477153 1-1v-3c0-.5522847-.4477153-1-1-1s-1 .4477153-1 1z"/><path d="m29 45.9982v3c0 .5522847.4477153 1 1 1s1-.4477153 1-1v-3c0-.5522847-.4477153-1-1-1s-1 .4477153-1 1z"/><path d="m29 53.9982v2c0 .5522847.4477153 1 1 1s1-.4477153 1-1v-2c0-.5522847-.4477153-1-1-1s-1 .4477153-1 1z"/><path d="m55 29.9982h-3c-.5522847 0-1 .4477153-1 1s.4477153 1 1 1h3c.5522847 0 1-.4477153 1-1s-.4477153-1-1-1z"/><path d="m47 29.9982h-3c-.5522847 0-1 .4477153-1 1s.4477153 1 1 1h3c.5522847 0 1-.4477153 1-1s-.4477153-1-1-1z"/><path d="m39 29.9982h-3c-.5522847 0-1 .4477153-1 1s.4477153 1 1 1h3c.5522847 0 1-.4477153 1-1s-.4477153-1-1-1z"/><path d="m23 29.9982h-3c-.5522847 0-1 .4477153-1 1s.4477153 1 1 1h3c.5522847 0 1-.4477153 1-1s-.4477153-1-1-1z"/><path d="m15 29.9982h-3c-.5522847 0-1 .4477153-1 1s.4477153 1 1 1h3c.5522847 0 1-.4477153 1-1s-.4477153-1-1-1z"/><path d="m7 29.9982h-2c-.55228475 0-1 .4477153-1 1s.44771525 1 1 1h2c.55228475 0 1-.4477153 1-1s-.44771525-1-1-1z"/></g></svg>

<svg fill="#82BC00" xmlns="http://www.w3.org/2000/svg" xmlns:xlink="http://www.w3.org/1999/xlink" viewBox="0 0 60 60" version="1.1" x="0px" y="0px"><title>104 -Road- (Outline)</title><desc>Created with Sketch.</desc><g stroke="none" stroke-width="1" fill="none" fill-rule="evenodd"><g transform="translate(-479.000000, -1549.000000)" fill="#82BC00"><g transform="translate(479.000000, 1548.000000)"><path d="M42,1.9982 C42,1.44591525 41.5522847,0.9982 41,0.9982 L19,0.9982 C18.4477153,0.9982 18,1.44591525 18,1.9982 L18,18.9982 L1,18.9982 C0.44771525,18.9982 0,19.4459153 0,19.9982 L0,41.9982 C0,42.5504847 0.44771525,42.9982 1,42.9982 L18,42.9982 L18,59.9982 C18,60.5504847 18.4477153,60.9982 19,60.9982 L41,60.9982 C41.5522847,60.9982 42,60.5504847 42,59.9982 L42,42.9982 L59,42.9982 C59.5522847,42.9982 60,42.5504847 60,41.9982 L60,19.9982 C60,19.4459153 59.5522847,18.9982 59,18.9982 L42,18.9982 L42,1.9982 Z M58,40.9982 L41,40.9982 C40.4477153,40.9982 40,41.4459153 40,41.9982 L40,58.9982 L20,58.9982 L20,41.9982 C20,41.4459153 19.5522847,40.9982 19,40.9982 L2,40.9982 L2,20.9982 L19,20.9982 C19.5522847,20.9982 20,20.5504847 20,19.9982 L20,2.9982 L40,2.9982 L40,19.9982 C40,20.5504847 40.4477153,20.9982 41,20.9982 L58,20.9982 L58,40.9982 Z"></path><path d="M29,5.9982 L29,8.9982 C29,9.55048475 29.4477153,9.9982 30,9.9982 C30.5522847,9.9982 31,9.55048475 31,8.9982 L31,5.9982 C31,5.44591525 30.5522847,4.9982 30,4.9982 C29.4477153,4.9982 29,5.44591525 29,5.9982 Z"></path><path d="M29,13.9982 L29,16.9982 C29,17.5504847 29.4477153,17.9982 30,17.9982 C30.5522847,17.9982 31,17.5504847 31,16.9982 L31,13.9982 C31,13.4459153 30.5522847,12.9982 30,12.9982 C29.4477153,12.9982 29,13.4459153 29,13.9982 Z"></path><path d="M29,21.9982 L29,24.9982 C29,25.5504847 29.4477153,25.9982 30,25.9982 C30.5522847,25.9982 31,25.5504847 31,24.9982 L31,21.9982 C31,21.4459153 30.5522847,20.9982 30,20.9982 C29.4477153,20.9982 29,21.4459153 29,21.9982 Z"></path><path d="M29,29.9982 L29,32.9982 C29,33.5504847 29.4477153,33.9982 30,33.9982 C30.5522847,33.9982 31,33.5504847 31,32.9982 L31,29.9982 C31,29.4459153 30.5522847,28.9982 30,28.9982 C29.4477153,28.9982 29,29.4459153 29,29.9982 Z"></path><path d="M29,37.9982 L29,40.9982 C29,41.5504847 29.4477153,41.9982 30,41.9982 C30.5522847,41.9982 31,41.5504847 31,40.9982 L31,37.9982 C31,37.4459153 30.5522847,36.9982 30,36.9982 C29.4477153,36.9982 29,37.4459153 29,37.9982 Z"></path><path d="M29,45.9982 L29,48.9982 C29,49.5504847 29.4477153,49.9982 30,49.9982 C30.5522847,49.9982 31,49.5504847 31,48.9982 L31,45.9982 C31,45.4459153 30.5522847,44.9982 30,44.9982 C29.4477153,44.9982 29,45.4459153 29,45.9982 Z"></path><path d="M29,53.9982 L29,55.9982 C29,56.5504847 29.4477153,56.9982 30,56.9982 C30.5522847,56.9982 31,56.5504847 31,55.9982 L31,53.9982 C31,53.4459153 30.5522847,52.9982 30,52.9982 C29.4477153,52.9982 29,53.4459153 29,53.9982 Z"></path><path d="M55,29.9982 L52,29.9982 C51.4477153,29.9982 51,30.4459153 51,30.9982 C51,31.5504847 51.4477153,31.9982 52,31.9982 L55,31.9982 C55.5522847,31.9982 56,31.5504847 56,30.9982 C56,30.4459153 55.5522847,29.9982 55,29.9982 Z"></path><path d="M47,29.9982 L44,29.9982 C43.4477153,29.9982 43,30.4459153 43,30.9982 C43,31.5504847 43.4477153,31.9982 44,31.9982 L47,31.9982 C47.5522847,31.9982 48,31.5504847 48,30.9982 C48,30.4459153 47.5522847,29.9982 47,29.9982 Z"></path><path d="M39,29.9982 L36,29.9982 C35.4477153,29.9982 35,30.4459153 35,30.9982 C35,31.5504847 35.4477153,31.9982 36,31.9982 L39,31.9982 C39.5522847,31.9982 40,31.5504847 40,30.9982 C40,30.4459153 39.5522847,29.9982 39,29.9982 Z"></path><path d="M23,29.9982 L20,29.9982 C19.4477153,29.9982 19,30.4459153 19,30.9982 C19,31.5504847 19.4477153,31.9982 20,31.9982 L23,31.9982 C23.5522847,31.9982 24,31.5504847 24,30.9982 C24,30.4459153 23.5522847,29.9982 23,29.9982 Z"></path><path d="M15,29.9982 L12,29.9982 C11.4477153,29.9982 11,30.4459153 11,30.9982 C11,31.5504847 11.4477153,31.9982 12,31.9982 L15,31.9982 C15.5522847,31.9982 16,31.5504847 16,30.9982 C16,30.4459153 15.5522847,29.9982 15,29.9982 Z"></path><path d="M7,29.9982 L5,29.9982 C4.44771525,29.9982 4,30.4459153 4,30.9982 C4,31.5504847 4.44771525,31.9982 5,31.9982 L7,31.9982 C7.55228475,31.9982 8,31.5504847 8,30.9982 C8,30.4459153 7.55228475,29.9982 7,29.9982 Z"></path></g></g></g></svg>
